X:1
T:Yon High High Hill
M:4/4
L:1/4
K:F
 c| A F F F| C F F A| B A G A| B c2 c| c f f f| f c c3/2 d/2| _e e G A|\
 B d c3/2 B/2| A G F2| G/2A/2 G/2E/2 C2| B3/2 A/2 G A| B d c3/2 B/2|\
 A G F||

